**kern	**kern	**dynam
*part1	*part1	*part1
*staff2	*staff1	*
*I"Piano	*	*
*clefF4	*clefG2	*
*k[]	*k[]	*
*M2/4	*M2/4	*
=1	=1	=1
8r	8r	.
=!|:	=!|:	=!|:
!	!	!LO:DY:a
(4c	(4e 4a	p
4A	4e 4cc	.
=	=	=
4G#X	4e 4b	.
4E	4g#X 4ee	.
=	=	=
4A	4e 4cc	.
4c	4e 4a	.
=	=	=
4e)	4g#X) 4b	.
(4B	(4d#X 4f#X	.
=	=	=
4E)	4e) 4g#X 4b	.
(4BB	(4d#X 4f#X	.
=	=	=
4GG#X	4e 4b	.
4EE	4g#X 4ee	.
=	=	=
*-	*-	*-
!!!system-decoration: {(s1,s2)}
